images/StarEmpty.svg

<svg xmlns="http://www.w3.org/2000/svg" viewBox="0 0 16 16" id="Star">
  <path fill="#f0ee06" d="M5.75766517,5.41369089 L7.55163196,1.77871714 C7.73503881,1.40709429 8.26496119,1.40709429 8.44836804,1.77871714 L10.2423348,5.41369089 L14.2537665,5.99658603 C14.6638767,6.05617853 14.8276317,6.56016466 14.5308732,6.84943272 L11.628174,9.67886518 L12.3134083,13.6740879 C12.3834635,14.082541 11.9547473,14.3940215 11.5879336,14.2011762 L8,12.3148879 L4.41206642,14.2011762 C4.04525273,14.3940215 3.61653652,14.082541 3.6865917,13.6740879 L4.37182604,9.67886518 L1.4691268,6.84943272 C1.17236829,6.56016466 1.33612331,6.05617853 1.74623349,5.99658603 L5.75766517,5.41369089 Z M6.53806597,6.09197762 C6.46523496,6.23954936 6.32445217,6.34183405 6.16159709,6.36549828 L2.89261321,6.84050944 L5.25807217,9.14626205 C5.37591521,9.26113063 5.42968945,9.42663073 5.40187048,9.58882776 L4.84346137,12.8446027 L7.76732944,11.3074343 C7.91299145,11.2308552 8.08700855,11.2308552 8.23267056,11.3074343 L11.1565386,12.8446027 L10.5981295,9.58882776 C10.5703105,9.42663073 10.6240848,9.26113063 10.7419278,9.14626205 L13.1073868,6.84050944 L9.83840291,6.36549828 C9.67554783,6.34183405 9.53476504,6.23954936 9.46193403,6.09197762 L8,3.12977573 L6.53806597,6.09197762 Z" class="color212121 svgShape"/>
</svg>

<?xml version="1.0" encoding="UTF-8" standalone="no"?>
<svg
   viewBox="0 0 16 16"
   id="Star"
   version="1.1"
   sodipodi:docname="StarEmpty.svg"
   inkscape:version="1.1.2 (0a00cf5339, 2022-02-04, custom)"
   xmlns:inkscape="http://www.inkscape.org/namespaces/inkscape"
   xmlns:sodipodi="http://sodipodi.sourceforge.net/DTD/sodipodi-0.dtd"
   xmlns="http://www.w3.org/2000/svg"
   xmlns:svg="http://www.w3.org/2000/svg">
  <defs
     id="defs836" />
  <sodipodi:namedview
     id="namedview834"
     pagecolor="#505050"
     bordercolor="#eeeeee"
     borderopacity="1"
     inkscape:pageshadow="0"
     inkscape:pageopacity="0"
     inkscape:pagecheckerboard="0"
     showgrid="false"
     inkscape:zoom="50.5625"
     inkscape:cx="7.9901112"
     inkscape:cy="8"
     inkscape:window-width="1920"
     inkscape:window-height="1018"
     inkscape:window-x="-6"
     inkscape:window-y="-6"
     inkscape:window-maximized="1"
     inkscape:current-layer="Star" />
  <path
     fill="#f0ee06"
     d="M 5.7576652,5.4137765 7.5516319,1.7787233 c 0.1834068,-0.3716311 0.7133292,-0.3716311 0.896736,0 l 1.7939671,3.6350532 4.011431,0.582908 c 0.410111,0.059594 0.573866,0.563591 0.277107,0.8528653 l -2.902699,2.8294944 0.685234,3.9953098 c 0.07005,0.408462 -0.358661,0.71995 -0.725474,0.5271 L 7.9999999,12.315125 4.4120664,14.201454 c -0.3668137,0.19285 -0.7955299,-0.118638 -0.7254747,-0.5271 L 4.371826,9.6790442 1.4691268,6.8495498 C 1.1723683,6.5602755 1.3361233,6.0562783 1.7462335,5.9966845 Z M 6.5380659,6.0920782 C 6.4652349,6.2396532 6.3244522,6.34194 6.1615971,6.3656047 l -3.2689839,0.4750216 2.365459,2.305803 c 0.117843,0.1148713 0.1716172,0.2803749 0.1437983,0.4425755 L 4.8434614,12.844851 7.7673293,11.307649 c 0.145662,-0.07658 0.3196792,-0.07658 0.4653412,0 L 11.156539,12.844851 10.59813,9.5890048 C 10.57031,9.4268049 10.62408,9.2613004 10.741928,9.1464293 L 13.107387,6.8406263 9.8384028,6.3656047 C 9.6755477,6.34194 9.5347649,6.2396532 9.4619339,6.0920782 L 7.9999999,3.1298115 Z"
     class="color212121 svgShape"
     id="path831"
     style="fill:#ffc356;fill-opacity:1;stroke-width:1.00001" />
</svg>
